X: 192076
T: Sister (The)
C: Joe Liddy
Z: BB
S: "The Leitrim Fiddler" (Dublin 1981)
L: 1/8
M: 6/8
R: jig
Q: 1/4 = 170
K: Ador
e/d/ | cAA cAA | GEG cde | gee gee | cde ged |
cAA cAA | GEG cde | gee ged | cAG A2 :|
d | eaa ged | cde ged | eaa ged | edc AGE |
AGA cAG | AGA cde | gee aed | cAG A2 :|
%%%%%%%%%%%%%%%%%%%%%%%
